!!!OTL: 870. Vor dem Hause der Braut am Hochzeitstage.
!!!ODT: 1885
!!!ARE: Europa, Mitteleuropa, Deutschland, Hessen, Kreis Limburg, Heringen
!!!SCT: E0870
!!!TXL: @@DE
!!!YEM: Copyright 1995, estate of Helmut Schaffrath.
**kern	**text
*ICvox	*
*M4/4	*
*met(c)	*
*k[f#]	*
*G:	*
!LO:TX:a:t=Volksmel. 1885.	!
{(8g	Komm
8dd)	her-
=1	=1
4dd	-aus,
4dd	komm_her-
4ee	-aus,
4ee	du
=2	=2
8ddL	trau-
8eeJ	.
(8dd	-ri-
8cc)	-ge
4b}	Braut,
{(8g	Wir
8dd)	.
=3	=3
4dd	ſte-
4dd	-hen
4ee	hier
4ee	vor_dem
=4	=4
8ddL	Hoch-
8eeJ	.
(8dd	-ʒeits-
8cc)	.
4b}	-haus.
{4dd	O
=5	=5
2.a	weh,
4b	o
=6	=6
2g}	weh,
{2a	wie
=7	=7
8b	wei-
8dd	-net
8ee	die-
8b	-ſe
4dd	Braut
(8aL	ſo
8ccJ)	.
=8	=8
2b	ſehr.
4r}	.
==	==
!!!AGN: Hochzeits -, Ehestands - Lied
!!!ONB: ESAC (Essen Associative Code) Database: ERK2
!!!AMT: simple quadruple
!!!AIN: vox
!!!EED: Helmut Schaffrath
!!!EEV: 1.0
!!!GTL: Hochzeits- und Ehrstandslieder, nebst Nonnenklagen
!!!URL-scan: https://rosdok.uni-rostock.de/mcrviewer/recordIdentifier/rosdok_ppn745177662/iview2/phys_0669.iview2?x=189.63181962357817&y=274.8802606165409&scale=0.7029437510502773&rotation=0&layout=singlePageLayout
!!!ENC: Anna Maria Matuszewska
!!!EEV: 2024/12/18
*-	*-
